X:072
U: ~ = !turn!
%%topmargin 3cm
T:For a Lousy Quarter I'd Go
B:Traditional Irish Fiddle Tunes. Randy Miller and Jack Perron.
Z:Transcribed by Ralph Palmer
C:Ralph Miller
R:Jig
L:1/8
M:6/8
K:D
A2 d Bcd | e2 d cBA | Bcd ecA | d3 c2 B |
A2 d Bcd | e2 d cBA | GFE ABc | [F3d3] [F3d3] ::
K:A
e2 A cBA | cef ecA | d2 f c2 e | BAB cAF |
EFE A2 B | cBA Bcd | edc BAG | A3 Acd :|]
